X: 38
T:Meeting of the Waters
R:march
Z:1997 by John Chambers <jc@eddie.mit.edu> http://eddie.mit.edu/~jc/music
Z:bc/
M:C
L:1/8
K:A
EF |"A"A2 Ac E2 A>G|"D"FA FD "A"E2 A>B|ce Ee dc BA|"E7"c4 B2 EF |!
"A"A2 Ac E2 A>G|"D"FA FD "A"E2 A>B|"A"ce dc "E7"dE GB|"A D A"A6:|!
|:cd |"A"e>d ce A2 cA|"D"F<A FD "A"E2 A>B|ce Ee dc BA|"E7"c4 B2 cd |!
"A"e>d ce A2 cA|"D"F<A FD "A"E2 A>B|"A"ce dc "E7"dE GB|"A D A"A6:|!
|:EF |"A"A2 A>B c2 cd|eE FA E2 e>d|cE cd ec BA|"E7"c4 B2 EF |!
"A"A2 A>B c2 cd|"A"ec BA "D"F2 A>B "A"ce dc "E7"dE GB|"A D A"A6:|!
|:e>d |"A"c2 e>d ce cE|"D"FA dF "A"E2 A>G|"D"FD FA dc BA|"E7"c4 B2 e>d|!
"A"c2 e>d ce cE|"D"FA dF "A"E2 A>B|"A"ce dc "E7"dE GB|"A D A"A6:|!
H:http://trillian.mit.edu/~jc/music/abc/KlezContra/march/MeetingOfTheWa
ters_A.abc
H:1999-04-12 04:22:00 UT

